wp-content/plugins/one-click-demo-import/assets/images/icons/layout.svg

<svg xmlns="http://www.w3.org/2000/svg" width="53" height="52" fill="none"><path fill="#999" d="M.875.375h16v35.25h-16zm19.25 0h16v16h-16zm19.125 0h12.875v51.25H39.25zm-19.125 19.25h16v16h-16zM.875 38.75h35.25v12.875H.875z"/></svg>

<svg width="53" height="52" viewBox="0 0 53 52" fill="none" xmlns="http://www.w3.org/2000/svg">
<path d="M0.875 0.375H16.875V35.625H0.875V0.375ZM20.125 0.375H36.125V16.375H20.125V0.375ZM39.25 0.375H52.125V51.625H39.25V0.375ZM20.125 19.625H36.125V35.625H20.125V19.625ZM0.875 38.75H36.125V51.625H0.875V38.75Z" fill="#999999"/>
</svg>
